icons/snowflake-dark.svg

<svg width="256" height="256" viewBox="0 0 256 256" fill="none" xmlns="http://www.w3.org/2000/svg" id="snowflake">
<path d="M196 0H60C26.8629 0 0 26.8629 0 60V196C0 229.137 26.8629 256 60 256H196C229.137 256 256 229.137 256 196V60C256 26.8629 229.137 0 196 0Z" fill="#282828"/>
<g clip-path="url(#clip0_5_8)">
<path fill-rule="evenodd" clip-rule="evenodd" d="M212.296 115.352L189.902 128.514L212.296 141.565C213.635 142.354 214.809 143.405 215.75 144.657C216.691 145.909 217.381 147.338 217.78 148.862C218.18 150.387 218.281 151.976 218.079 153.54C217.876 155.104 217.373 156.612 216.599 157.978C215.825 159.344 214.795 160.541 213.567 161.501C212.34 162.461 210.939 163.165 209.445 163.573C207.95 163.98 206.392 164.084 204.859 163.877C203.325 163.67 201.847 163.157 200.508 162.368L160.384 138.791C158.545 137.706 157.027 136.134 155.991 134.242C154.955 132.351 154.439 130.209 154.497 128.042C154.528 127.104 154.67 126.173 154.918 125.269C155.739 122.237 157.692 119.653 160.357 118.071L200.48 94.5766C201.825 93.7838 203.311 93.2693 204.851 93.0626C206.391 92.8559 207.956 92.961 209.456 93.3719C210.957 93.7828 212.363 94.4915 213.594 95.4574C214.826 96.4233 215.858 97.6274 216.633 99.0008C217.411 100.362 217.916 101.868 218.119 103.43C218.322 104.992 218.219 106.58 217.816 108.101C217.412 109.623 216.716 111.047 215.769 112.292C214.821 113.536 213.641 114.577 212.296 115.352ZM191.099 179.149L150.989 155.614C149.194 154.563 147.161 154.01 145.092 154.009C143.023 154.008 140.99 154.56 139.195 155.609C137.399 156.657 135.904 158.167 134.858 159.988C133.812 161.809 133.251 163.877 133.232 165.988V213.003C133.336 216.127 134.625 219.088 136.828 221.26C139.032 223.432 141.976 224.647 145.04 224.647C148.104 224.647 151.049 223.432 153.252 221.26C155.455 219.088 156.745 216.127 156.849 213.003V186.652L179.297 199.814C180.636 200.604 182.115 201.118 183.648 201.326C185.182 201.533 186.741 201.431 188.236 201.024C189.731 200.617 191.132 199.913 192.361 198.954C193.589 197.994 194.62 196.797 195.395 195.431C196.17 194.065 196.674 192.557 196.877 190.993C197.081 189.428 196.98 187.838 196.581 186.313C196.182 184.789 195.493 183.359 194.552 182.106C193.611 180.853 192.438 179.801 191.099 179.011V179.149ZM144.87 133.16L128.146 150.011C127.574 150.553 126.833 150.873 126.053 150.912H121.144C120.366 150.865 119.627 150.546 119.05 150.011L102.422 133.104C101.901 132.525 101.594 131.781 101.551 130.996V126.004C101.596 125.216 101.903 124.467 102.422 123.882L119.05 106.975C119.628 106.444 120.367 106.131 121.144 106.088H126.053C126.831 106.125 127.572 106.439 128.146 106.975L144.816 123.882C145.33 124.469 145.632 125.217 145.672 126.004V130.996C145.635 131.779 145.332 132.524 144.816 133.104L144.87 133.16ZM131.546 128.472C131.481 127.664 131.151 126.901 130.607 126.309L125.781 121.441C125.202 120.91 124.463 120.597 123.687 120.553H123.51C122.737 120.594 122.002 120.908 121.43 121.441L116.603 126.309C116.085 126.904 115.782 127.663 115.746 128.458V128.639C115.781 129.422 116.084 130.168 116.603 130.747L121.457 135.601C122.03 136.132 122.764 136.445 123.537 136.489H123.714C124.491 136.445 125.229 136.132 125.808 135.601L130.635 130.705C131.156 130.126 131.468 129.382 131.518 128.597L131.546 128.472ZM56.098 77.8784L96.2216 101.345C98.0181 102.395 100.053 102.947 102.123 102.947C104.194 102.947 106.228 102.395 108.025 101.344C109.821 100.294 111.317 98.7831 112.364 96.9609C113.411 95.1386 113.972 93.0688 113.992 90.9568V43.9827C113.888 40.8589 112.599 37.8984 110.396 35.7261C108.192 33.5537 105.248 32.3394 102.184 32.3394C99.1194 32.3394 96.175 33.5537 93.9718 35.7261C91.7686 37.8984 90.479 40.8589 90.3751 43.9827V70.3337L67.8999 57.1582C66.5607 56.3678 65.082 55.8541 63.5483 55.6466C62.0145 55.4391 60.4557 55.5417 58.9608 55.9487C57.4659 56.3556 56.0643 57.0589 54.8359 58.0184C53.6075 58.9779 52.5764 60.1748 51.8015 61.5408C51.0265 62.9068 50.523 64.4151 50.3195 65.9795C50.116 67.544 50.2167 69.1341 50.6156 70.6589C51.0146 72.1837 51.7041 73.6134 52.6448 74.8664C53.5854 76.1194 54.7588 77.1712 56.098 77.9616V77.8784ZM144.15 102.953C146.519 103.145 148.889 102.598 150.948 101.386L191.058 77.8091C192.397 77.0186 193.571 75.9669 194.511 74.7139C195.452 73.4609 196.141 72.0311 196.54 70.5063C196.939 68.9815 197.04 67.3915 196.836 65.827C196.633 64.2625 196.129 62.7542 195.354 61.3883C194.58 60.0223 193.548 58.8254 192.32 57.8659C191.092 56.9064 189.69 56.2031 188.195 55.7961C185.176 54.9742 181.961 55.4093 179.256 57.0057L156.808 70.2921V43.9411C156.704 40.8173 155.415 37.8568 153.211 35.6845C151.008 33.5121 148.064 32.2978 144.999 32.2978C141.935 32.2978 138.991 33.5121 136.788 35.6845C134.584 37.8568 133.295 40.8173 133.191 43.9411V90.9568C133.187 94.0007 134.317 96.9326 136.351 99.1595C138.385 101.387 141.173 102.743 144.15 102.953ZM103.074 154.047C100.705 153.85 98.3326 154.397 96.276 155.614L56.098 179.094C53.3935 180.69 51.4214 183.317 50.6156 186.397C49.8099 189.476 50.2364 192.756 51.8015 195.515C53.3665 198.273 55.9418 200.285 58.9608 201.107C61.9799 201.929 65.1953 201.494 67.8999 199.897L90.3751 186.736V213.087C90.479 216.21 91.7686 219.171 93.9718 221.343C96.175 223.516 99.1194 224.73 102.184 224.73C105.248 224.73 108.192 223.516 110.396 221.343C112.599 219.171 113.888 216.21 113.992 213.087V165.988C113.986 162.959 112.857 160.045 110.832 157.83C108.807 155.615 106.036 154.264 103.074 154.047ZM92.197 132.037C92.9715 129.439 92.8548 126.649 91.8661 124.128C90.8774 121.606 89.0758 119.504 86.7584 118.168L46.6755 94.6043C43.9685 93.0228 40.7581 92.5974 37.7448 93.421C34.7315 94.2447 32.1598 96.2504 30.5907 99.0008C29.814 100.362 29.3095 101.867 29.1065 103.428C28.9035 104.989 29.006 106.576 29.4081 108.097C29.8102 109.617 30.5038 111.041 31.449 112.287C32.3942 113.532 33.572 114.574 34.9145 115.352L57.3081 128.514L34.9145 141.565C33.5753 142.352 32.4014 143.401 31.4597 144.652C30.518 145.902 29.827 147.33 29.4261 148.853C29.0253 150.375 28.9224 151.964 29.1234 153.527C29.3244 155.091 29.8253 156.599 30.5975 157.965C31.3698 159.331 32.3982 160.528 33.6242 161.489C34.8501 162.449 36.2495 163.154 37.7425 163.563C39.2355 163.972 40.7928 164.077 42.3255 163.872C43.8583 163.667 45.3364 163.156 46.6755 162.368L86.7584 138.791C89.3395 137.321 91.2782 134.907 92.1834 132.037H92.197ZM218.849 54.0655H217.041V56.3261H218.836C219.665 56.3261 220.196 55.9378 220.196 55.2166C220.196 54.4954 219.706 54.0655 218.836 54.0655H218.849ZM214.852 51.9851H218.931C221.134 51.9851 222.602 53.2195 222.602 55.1334C222.609 55.6661 222.477 56.1911 222.219 56.6543C221.961 57.1175 221.586 57.5021 221.134 57.7685L222.724 60.0984V60.57H220.427L218.836 58.351H217.041V60.57H214.838L214.852 51.9851ZM226.137 56.4509C226.203 55.401 226.055 54.3485 225.702 53.3601C225.348 52.3717 224.798 51.4689 224.084 50.7088C223.371 49.9488 222.511 49.348 221.558 48.9446C220.606 48.5412 219.582 48.344 218.55 48.3653C214.05 48.3653 211.059 51.68 211.059 56.4509C211.059 60.9999 214.05 64.5226 218.55 64.5226C219.582 64.5479 220.608 64.3539 221.562 63.9529C222.516 63.552 223.378 62.9528 224.093 62.1936C224.808 61.4344 225.36 60.5318 225.714 59.5431C226.068 58.5545 226.217 57.5014 226.151 56.4509H226.137ZM228.014 56.4509C228.014 61.8459 224.478 66.3533 218.496 66.3533C212.513 66.3533 209.128 61.8043 209.128 56.4509C209.128 51.0975 212.622 46.5485 218.496 46.5485C224.37 46.5485 228 51.042 228 56.4509H228.014Z" fill="#29B5E8"/>
</g>
<defs>
<clipPath id="clip0_5_8">
<rect width="199" height="193" fill="white" transform="translate(29 32)"/>
</clipPath>
</defs>
</svg>

<svg xmlns="http://www.w3.org/2000/svg" id="snowflake" width="256" height="256" fill="none"><path fill="#282828" d="M196 0H60C26.863 0 0 26.863 0 60v136c0 33.137 26.863 60 60 60h136c33.137 0 60-26.863 60-60V60c0-33.137-26.863-60-60-60"/><g clip-path="url(#clip0_5_8)"><path fill="#29B5E8" fill-rule="evenodd" d="m212.296 115.352-22.394 13.162 22.394 13.051a11.9 11.9 0 0 1 3.454 3.092 12.1 12.1 0 0 1 2.03 4.205c.4 1.525.501 3.114.299 4.678a12.2 12.2 0 0 1-1.48 4.438 11.9 11.9 0 0 1-3.032 3.523 11.7 11.7 0 0 1-4.122 2.072 11.6 11.6 0 0 1-4.586.304 11.6 11.6 0 0 1-4.351-1.509l-40.124-23.577a11.9 11.9 0 0 1-4.393-4.549 12.23 12.23 0 0 1-1.494-6.2 12 12 0 0 1 .421-2.773 12 12 0 0 1 5.439-7.198l40.123-23.494a11.7 11.7 0 0 1 4.371-1.514 11.6 11.6 0 0 1 4.605.309c1.501.41 2.907 1.12 4.138 2.085a12 12 0 0 1 3.039 3.544 12.1 12.1 0 0 1 1.486 4.429c.203 1.562.1 3.15-.303 4.671a12 12 0 0 1-2.047 4.191 11.7 11.7 0 0 1-3.473 3.06m-21.197 63.797-40.11-23.535a11.7 11.7 0 0 0-5.897-1.605 11.67 11.67 0 0 0-5.897 1.6 11.96 11.96 0 0 0-4.337 4.379 12.3 12.3 0 0 0-1.626 6v47.015a12.16 12.16 0 0 0 3.596 8.257 11.7 11.7 0 0 0 8.212 3.387c3.064 0 6.009-1.215 8.212-3.387a12.17 12.17 0 0 0 3.597-8.257v-26.351l22.448 13.162a11.57 11.57 0 0 0 8.939 1.21 11.7 11.7 0 0 0 4.125-2.07 12 12 0 0 0 3.034-3.523 12.24 12.24 0 0 0 1.186-9.118 12.1 12.1 0 0 0-2.029-4.207 11.9 11.9 0 0 0-3.453-3.095zM144.87 133.16l-16.724 16.851a3.28 3.28 0 0 1-2.093.901h-4.909a3.38 3.38 0 0 1-2.094-.901l-16.628-16.907a3.43 3.43 0 0 1-.871-2.108v-4.992a3.5 3.5 0 0 1 .871-2.122l16.628-16.907a3.37 3.37 0 0 1 2.094-.887h4.909a3.3 3.3 0 0 1 2.093.887l16.67 16.907a3.5 3.5 0 0 1 .856 2.122v4.992a3.4 3.4 0 0 1-.856 2.108zm-13.324-4.688a3.63 3.63 0 0 0-.939-2.163l-4.826-4.868a3.38 3.38 0 0 0-2.094-.888h-.177a3.3 3.3 0 0 0-2.08.888l-4.827 4.868a3.52 3.52 0 0 0-.857 2.149v.181c.035.783.338 1.529.857 2.108l4.854 4.854a3.34 3.34 0 0 0 2.08.888h.177a3.38 3.38 0 0 0 2.094-.888l4.827-4.896a3.5 3.5 0 0 0 .883-2.108zM56.098 77.878l40.124 23.467a11.7 11.7 0 0 0 5.901 1.602c2.071 0 4.105-.552 5.902-1.603a12 12 0 0 0 4.339-4.383 12.3 12.3 0 0 0 1.628-6.004V43.983a12.16 12.16 0 0 0-3.596-8.257 11.7 11.7 0 0 0-8.212-3.387 11.7 11.7 0 0 0-8.212 3.387 12.16 12.16 0 0 0-3.597 8.257v26.35L67.9 57.159a11.6 11.6 0 0 0-4.352-1.511 11.6 11.6 0 0 0-4.587.302 11.7 11.7 0 0 0-4.125 2.07 12 12 0 0 0-3.036 3.52 12.2 12.2 0 0 0-1.482 4.439 12.3 12.3 0 0 0 .297 4.679 12.1 12.1 0 0 0 2.029 4.207 11.9 11.9 0 0 0 3.453 3.096zm88.052 25.075a11.55 11.55 0 0 0 6.798-1.567l40.11-23.577a11.9 11.9 0 0 0 3.453-3.095 12.1 12.1 0 0 0 2.029-4.208 12.24 12.24 0 0 0-1.186-9.118 11.9 11.9 0 0 0-3.034-3.522 11.7 11.7 0 0 0-4.125-2.07 11.58 11.58 0 0 0-8.939 1.21l-22.448 13.286v-26.35a12.16 12.16 0 0 0-3.597-8.257 11.7 11.7 0 0 0-8.212-3.387 11.7 11.7 0 0 0-8.211 3.386 12.16 12.16 0 0 0-3.597 8.257v47.016a12.14 12.14 0 0 0 3.16 8.203 11.68 11.68 0 0 0 7.799 3.793m-41.076 51.094a11.5 11.5 0 0 0-6.798 1.567l-40.178 23.48c-2.704 1.596-4.677 4.223-5.482 7.303a12.23 12.23 0 0 0 1.185 9.118c1.566 2.758 4.14 4.77 7.16 5.592 3.019.822 6.234.387 8.939-1.21l22.475-13.161v26.351a12.16 12.16 0 0 0 3.597 8.256 11.7 11.7 0 0 0 8.212 3.387c3.064 0 6.008-1.214 8.212-3.387a12.16 12.16 0 0 0 3.596-8.256v-47.099a12.13 12.13 0 0 0-3.16-8.158 11.67 11.67 0 0 0-7.758-3.783m-10.877-22.01a12.17 12.17 0 0 0-.33-7.909 11.87 11.87 0 0 0-5.109-5.96L46.676 94.604a11.6 11.6 0 0 0-8.931-1.183c-3.014.824-5.585 2.83-7.154 5.58a12.1 12.1 0 0 0-1.485 4.427c-.203 1.561-.1 3.148.302 4.669a12 12 0 0 0 2.041 4.19 11.8 11.8 0 0 0 3.465 3.065l22.394 13.162-22.394 13.051a11.8 11.8 0 0 0-3.454 3.087 12.1 12.1 0 0 0-2.034 4.201 12.24 12.24 0 0 0 1.172 9.112 11.9 11.9 0 0 0 3.026 3.524 11.7 11.7 0 0 0 4.118 2.074 11.55 11.55 0 0 0 4.584.309 11.6 11.6 0 0 0 4.35-1.504l40.082-23.577a11.87 11.87 0 0 0 5.425-6.754zm126.652-77.971h-1.808v2.26h1.795c.829 0 1.36-.388 1.36-1.11 0-.72-.49-1.15-1.36-1.15zm-3.997-2.08h4.079c2.203 0 3.671 1.233 3.671 3.147a3.04 3.04 0 0 1-.383 1.521 2.97 2.97 0 0 1-1.085 1.114l1.59 2.33v.472h-2.297l-1.591-2.219h-1.795v2.219h-2.203zm11.285 4.465a7.75 7.75 0 0 0-.435-3.09 7.6 7.6 0 0 0-1.618-2.652 7.4 7.4 0 0 0-2.526-1.764 7.3 7.3 0 0 0-3.008-.58c-4.5 0-7.491 3.315-7.491 8.086 0 4.549 2.991 8.072 7.491 8.072a7.3 7.3 0 0 0 3.012-.57c.954-.401 1.816-1 2.531-1.76a7.6 7.6 0 0 0 1.621-2.65 7.7 7.7 0 0 0 .437-3.092zm1.877 0c0 5.395-3.536 9.902-9.518 9.902s-9.368-4.549-9.368-9.902c0-5.354 3.494-9.903 9.368-9.903S228 51.043 228 56.451z" clip-rule="evenodd"/></g><defs><clipPath id="clip0_5_8"><path fill="#fff" d="M29 32h199v193H29z"/></clipPath></defs></svg>
